icons/developer-credentials-32.svg

<?xml version="1.0" encoding="UTF-8"?><svg id="icons" xmlns="http://www.w3.org/2000/svg" viewBox="0 0 32 32"><rect width="32" height="32" style="fill:none; stroke-width:0px;"/><path d="M13.67755,27.03412c-.18677-.0282-.37042-.0719-.54572-.14838l-10.13184-4.43457v-13.78418c0-1.28613.76172-2.45117,1.93945-2.96777l8.19336-3.58496c.5459-.23926,1.18359-.24121,1.73535,0l10.13184,4.43457v6.95117c-.34088,0-.67316.0343-1,.08514v-6.38202L14.46777,3.03027c-.29688-.12891-.63867-.12891-.93359,0l-8.19336,3.58496c-.81445.35742-1.34082,1.16211-1.34082,2.05176v13.12988l9.53223,4.17285c.29688.12891.63867.12891.93359,0l.30188-.13208-.82825.82837c-.10834.10834-.19208.2348-.2619.3681ZM28,18.5c0,.82861-.67139,1.5-1.5,1.5s-1.5-.67139-1.5-1.5.67139-1.5,1.5-1.5,1.5.67139,1.5,1.5ZM27,18.5c0-.27539-.22461-.5-.5-.5s-.5.22461-.5.5.22461.5.5.5.5-.22461.5-.5ZM30,20c0,2.76068-2.23926,5-5,5-.52997,0-1.03088-.10486-1.51025-.25775l-1.25732,1.25775h-1.23242v1.2334l-.7666.7666h-1.2334v1.23438l-.75592.7558-.0224.00983h-3.22168v-2.27344l5.52911-5.52997c-.32806-.66565-.52911-1.40454-.52911-2.19659,0-2.76074,2.23926-5,5-5s5,2.23926,5,5ZM29,20c0-2.20557-1.79443-4-4-4s-4,1.79443-4,4c0,.88336.29706,1.69318.78387,2.35577l-5.78387,5.78479v.85944h1.82031l.17969-.17969v-1.82031h1.81927l.18073-.18073v-1.81927h1.81787l1.42438-1.42474c.53284.26331,1.12427.42474,1.75775.42474,2.20557,0,4-1.79443,4-4ZM14,21c-3.30859,0-6-2.69141-6-6,0-.77332.15204-1.51044.41962-2.18982l-.80273-.67352c-.39313.87482-.61688,1.8421-.61688,2.86334,0,3.86597,3.13403,7,7,7,1.7265,0,3.30438-.62805,4.52496-1.66418-.00604-.11261-.02496-.22168-.02496-.33582,0-.39862.0415-.78711.11053-1.16608-1.10144,1.32233-2.75891,2.16608-4.61053,2.16608ZM14,8c-1.75861,0-3.36139.65326-4.59094,1.72418l.77423.64966c1.0379-.85779,2.3681-1.37384,3.81671-1.37384,3.30859,0,6,2.69141,6,6,0,.32831-.03363.64825-.08459.9624.31671-.39801.67908-.75665,1.0791-1.07098-.05865-3.81537-3.16522-6.89142-6.99451-6.89142ZM17,12h-6v1h6v-1ZM18,14h-7v1h7v-1ZM15,16h-4v1h4v-1Z" style="fill:#000; stroke-width:0px;"/></svg>

<svg xmlns="http://www.w3.org/2000/svg" viewBox="0 0 32 32"><path fill="none" stroke-width="0" d="M0 0h32v32H0z"/><path d="M13.678 27.034a2.159 2.159 0 0 1-.546-.148L3 22.45V8.667c0-1.286.762-2.451 1.94-2.968l8.193-3.585a2.18 2.18 0 0 1 1.735 0L25 6.55v6.95c-.34 0-.673.034-1 .085V7.203L14.468 3.03a1.175 1.175 0 0 0-.934 0L5.341 6.615A2.24 2.24 0 0 0 4 8.667v13.13l9.532 4.173c.297.129.639.129.934 0l.302-.132-.829.828a1.492 1.492 0 0 0-.261.368zM28 18.5a1.5 1.5 0 1 1-3 0 1.5 1.5 0 0 1 3 0zm-1 0a.501.501 0 0 0-1 0 .501.501 0 0 0 1 0zm3 1.5a5 5 0 0 1-5 5c-.53 0-1.03-.105-1.51-.258L22.232 26H21v1.233l-.767.767H19v1.234l-.756.756-.022.01H15v-2.273l5.53-5.53A4.947 4.947 0 0 1 20 20a5 5 0 0 1 10 0zm-1 0c0-2.206-1.794-4-4-4s-4 1.794-4 4c0 .883.297 1.693.784 2.356L16 28.14V29h1.82l.18-.18V27h1.82l.18-.18V25h1.818l1.424-1.425A3.95 3.95 0 0 0 25 24c2.206 0 4-1.794 4-4zm-15 1c-3.309 0-6-2.691-6-6 0-.773.152-1.51.42-2.19l-.803-.673A6.965 6.965 0 0 0 7 15a7 7 0 0 0 7 7 6.968 6.968 0 0 0 4.525-1.664c-.006-.113-.025-.222-.025-.336 0-.399.042-.787.11-1.166A5.989 5.989 0 0 1 14 21zm0-13a6.966 6.966 0 0 0-4.59 1.724l.773.65A5.972 5.972 0 0 1 14 9c3.309 0 6 2.691 6 6 0 .328-.034.648-.085.962.317-.398.68-.756 1.08-1.07A6.997 6.997 0 0 0 14 8zm3 4h-6v1h6v-1zm1 2h-7v1h7v-1zm-3 2h-4v1h4v-1z" stroke-width="0"/></svg>
